svgs/sharp-regular/peseta-sign.svg

<svg xmlns="http://www.w3.org/2000/svg" viewBox="0 0 384 512"><!--! Font Awesome Pro 6.6.0 by @fontawesome - https://fontawesome.com License - https://fontawesome.com/license (Commercial License) Copyright 2024 Fonticons, Inc. --><path d="M72 32L48 32l0 24 0 120L0 176l0 48 48 0 0 104 0 128 0 24 48 0 0-24 0-104 96 0c77.4 0 142-55 156.8-128l35.2 0 0-48-32.8 0C343.2 95.1 275 32 192 32L72 32zM302.9 176L96 176l0-96 96 0c56.4 0 103.1 41.7 110.9 96zM96 224l203.4 0c-13.8 46.3-56.6 80-107.4 80l-96 0 0-80z"/></svg>

<svg xmlns="http://www.w3.org/2000/svg" viewBox="0 0 384 512"><!--! Font Awesome Pro 6.4.0 by @fontawesome - https://fontawesome.com License - https://fontawesome.com/license (Commercial License) Copyright 2023 Fonticons, Inc. --><path d="M72 32H48V56 176H0v48H48V328 456v24H96V456 352h96c77.4 0 142-55 156.8-128H384V176H351.2C343.2 95.1 275 32 192 32H72zM302.9 176H96V80h96c56.4 0 103.1 41.7 110.9 96zM96 224H299.4c-13.8 46.3-56.6 80-107.4 80H96V224z"/></svg>
